packages/icons/src/components/Icon/assets/small-solid/calendar-range.svg

<svg width="16" height="16" viewBox="0 0 16 16" fill="none" xmlns="http://www.w3.org/2000/svg">
<path d="M5.57704 8C5.13096 8 4.76934 8.36162 4.76934 8.80769C4.76934 9.25377 5.13096 9.61539 5.57704 9.61539C6.02311 9.61539 6.38473 9.25377 6.38473 8.80769C6.38473 8.36162 6.02311 8 5.57704 8Z" fill="black"/>
<path d="M4.76934 10.9615C4.76934 10.5155 5.13096 10.1538 5.57704 10.1538C6.02311 10.1538 6.38473 10.5155 6.38473 10.9615C6.38473 11.4076 6.02311 11.7692 5.57704 11.7692C5.13096 11.7692 4.76934 11.4076 4.76934 10.9615Z" fill="black"/>
<path d="M10.4232 8C9.97711 8 9.6155 8.36162 9.6155 8.80769C9.6155 9.25377 9.97711 9.61539 10.4232 9.61539C10.8693 9.61539 11.2309 9.25377 11.2309 8.80769C11.2309 8.36162 10.8693 8 10.4232 8Z" fill="black"/>
<path d="M7.19242 8.80769C7.19242 8.36162 7.55404 8 8.00011 8C8.44619 8 8.8078 8.36162 8.8078 8.80769C8.8078 9.25377 8.44619 9.61539 8.00011 9.61539C7.55404 9.61539 7.19242 9.25377 7.19242 8.80769Z" fill="black"/>
<path d="M8.00011 10.1538C7.55404 10.1538 7.19242 10.5155 7.19242 10.9615C7.19242 11.4076 7.55404 11.7692 8.00011 11.7692C8.44619 11.7692 8.8078 11.4076 8.8078 10.9615C8.8078 10.5155 8.44619 10.1538 8.00011 10.1538Z" fill="black"/>
<path fill-rule="evenodd" clip-rule="evenodd" d="M4.50011 1C4.05404 1 3.69242 1.36162 3.69242 1.80769V3.15385C2.50288 3.15385 1.53857 4.11816 1.53857 5.30769V12.8462C1.53857 14.0357 2.50288 15 3.69242 15H12.3078C13.4973 15 14.4617 14.0357 14.4617 12.8462V5.30769C14.4617 4.11816 13.4973 3.15385 12.3078 3.15385V1.80769C12.3078 1.36162 11.9462 1 11.5001 1C11.054 1 10.6924 1.36162 10.6924 1.80769V3.15385H5.3078V1.80769C5.3078 1.36162 4.94619 1 4.50011 1ZM3.15396 7.46154C3.15396 6.86677 3.63611 6.38462 4.23088 6.38462H11.7693C12.3641 6.38462 12.8463 6.86677 12.8463 7.46154V12.3077C12.8463 12.9025 12.3641 13.3846 11.7693 13.3846H4.23088C3.63611 13.3846 3.15396 12.9025 3.15396 12.3077V7.46154Z" fill="black"/>
</svg>

<svg xmlns="http://www.w3.org/2000/svg" width="16" height="16" fill="none" viewBox="0 0 16 16">
    <path fill="#000" d="M5.577 8a.808.808 0 1 0 0 1.615.808.808 0 0 0 0-1.615m-.807 2.962a.808.808 0 1 1 1.615 0 .808.808 0 0 1-1.616 0M10.423 8a.808.808 0 1 0 0 1.615.808.808 0 0 0 0-1.615m-3.231.808a.808.808 0 1 1 1.616 0 .808.808 0 0 1-1.616 0M8 10.154a.808.808 0 1 0 0 1.615.808.808 0 0 0 0-1.615"/>
    <path fill="#000" fill-rule="evenodd" d="M4.5 1a.81.81 0 0 0-.808.808v1.346c-1.19 0-2.153.964-2.153 2.154v7.538c0 1.19.964 2.154 2.153 2.154h8.616c1.19 0 2.154-.964 2.154-2.154V5.308c0-1.19-.965-2.154-2.154-2.154V1.808a.808.808 0 1 0-1.616 0v1.346H5.308V1.808A.81.81 0 0 0 4.5 1M3.154 7.462c0-.595.482-1.077 1.077-1.077h7.538c.595 0 1.077.482 1.077 1.077v4.846c0 .595-.482 1.077-1.077 1.077H4.231a1.077 1.077 0 0 1-1.077-1.077z" clip-rule="evenodd"/>
</svg>
